program
  display [Hello  World! [note: list of list]]
end program

to display :msg
  repeat 9 [type "-]
  print "-
  ;repeat 10 [print "-]
  print :msg "MORE -5 + 123 * 2 [Info] first [a b c]
  repeat 4 [type "-]
  print "-
end "display
